symbols/web/18mp/materialsymbolsrounded/18mp_wght100gradN25fill1_48px.svg

<svg xmlns="http://www.w3.org/2000/svg" height="48" width="48"><path d="M18.4 22.05q.25 0 .425-.175T19 21.35v-8.3q0-.55-.425-.975-.425-.425-.975-.425h-2.35q-.2 0-.375.175t-.175.425q0 .3.175.475t.475.175h2.4v8.5q0 .3.175.475t.475.175Zm7.9 0h4.45q.55 0 .975-.425.425-.425.425-.975v-7.6q0-.55-.425-.975-.425-.425-.975-.425H26.3q-.6 0-1 .425t-.4.975v7.6q0 .55.4.975.4.425 1 .425Zm-.15-5.85V13h4.75v3.2Zm0 4.5v-3.2h4.75v3.2ZM11.3 39.4q-1.1 0-1.9-.8-.8-.8-.8-1.9V11.3q0-1.1.8-1.9.8-.8 1.9-.8h25.4q1.1 0 1.9.8.8.8.8 1.9v25.4q0 1.1-.8 1.9-.8.8-1.9.8Zm2.05-3.05q.25 0 .425-.175t.175-.525V27.2h3.8v5.5q0 .25.175.425t.475.175q.25 0 .425-.175T19 32.65V27.2h3.9v8.5q0 .3.175.475t.475.175q.25 0 .425-.175t.175-.525v-8.5q0-.5-.325-.85t-.875-.35H13.9q-.5 0-.85.35t-.35.85v8.55q0 .3.175.475t.475.175Zm15.35 0q.25 0 .425-.175t.175-.525V33.3h4.8q.55 0 .875-.35.325-.35.325-.85v-4.95q0-.55-.325-.875-.325-.325-.875-.325h-4.85q-.5 0-.85.35t-.35.85v8.55q0 .3.175.475t.475.175Zm.6-9.15h4.75v4.85H29.3Z"/></svg>

<svg xmlns="http://www.w3.org/2000/svg" height="48" width="48"><path d="M18.4 22.05Q18.65 22.05 18.825 21.875Q19 21.7 19 21.35V13.05Q19 12.5 18.575 12.075Q18.15 11.65 17.6 11.65H15.25Q15.05 11.65 14.875 11.825Q14.7 12 14.7 12.25Q14.7 12.55 14.875 12.725Q15.05 12.9 15.35 12.9H17.75V21.4Q17.75 21.7 17.925 21.875Q18.1 22.05 18.4 22.05ZM26.3 22.05H30.75Q31.3 22.05 31.725 21.625Q32.15 21.2 32.15 20.65V13.05Q32.15 12.5 31.725 12.075Q31.3 11.65 30.75 11.65H26.3Q25.7 11.65 25.3 12.075Q24.9 12.5 24.9 13.05V20.65Q24.9 21.2 25.3 21.625Q25.7 22.05 26.3 22.05ZM26.15 16.2V13H30.9V16.2ZM26.15 20.7V17.5H30.9V20.7ZM11.3 39.4Q10.2 39.4 9.4 38.6Q8.6 37.8 8.6 36.7V11.3Q8.6 10.2 9.4 9.4Q10.2 8.6 11.3 8.6H36.7Q37.8 8.6 38.6 9.4Q39.4 10.2 39.4 11.3V36.7Q39.4 37.8 38.6 38.6Q37.8 39.4 36.7 39.4ZM13.35 36.35Q13.6 36.35 13.775 36.175Q13.95 36 13.95 35.65V27.2H17.75V32.7Q17.75 32.95 17.925 33.125Q18.1 33.3 18.4 33.3Q18.65 33.3 18.825 33.125Q19 32.95 19 32.65V27.2H22.9V35.7Q22.9 36 23.075 36.175Q23.25 36.35 23.55 36.35Q23.8 36.35 23.975 36.175Q24.15 36 24.15 35.65V27.15Q24.15 26.65 23.825 26.3Q23.5 25.95 22.95 25.95H13.9Q13.4 25.95 13.05 26.3Q12.7 26.65 12.7 27.15V35.7Q12.7 36 12.875 36.175Q13.05 36.35 13.35 36.35ZM28.7 36.35Q28.95 36.35 29.125 36.175Q29.3 36 29.3 35.65V33.3H34.1Q34.65 33.3 34.975 32.95Q35.3 32.6 35.3 32.1V27.15Q35.3 26.6 34.975 26.275Q34.65 25.95 34.1 25.95H29.25Q28.75 25.95 28.4 26.3Q28.05 26.65 28.05 27.15V35.7Q28.05 36 28.225 36.175Q28.4 36.35 28.7 36.35ZM29.3 27.2H34.05V32.05H29.3Z"/></svg>
